X: 192153
T: Sunhaven
C: Joe Liddy
S: "The Leitrim Fiddler" (Dublin 1981)
Z: BB
L: 1/8
M: 4/4
R: reel
Q: 1/4 = 170
K: Edor
BA | GEED EFGA | BEED E2 GA | B2 dB GABd | edBG A2 BA |
GEFD EFGA | BEED E2 GA | B2 dB edBA |1 GBAF GE :|
[2 GBAF GE E2 || Be e2 Bdef | g2 af gfed | B2 (3dBA GABd |
edBA GEGA | Bdef g2 f2 | efdB AEGA | B2 ed BdBA |
[1 GE (3GED E2 GA :|2 GE (3GED E2 ||
%%%%%%%%%%%%%%%%%%%%%
